X: 5294
T: Brother Gildas'
R: reel
M: 4/4
K: Dmajor
|:FG|A2 DF .A2 DF|ABAF G2 FG|ADDE FGAB|=cABA G2:|
(A/B/c)|d2 fd cdec|BcdB AGFA|dgfd cdec|BcdB .A2 (A/B/c)|
d2 fd cdec|BcdB AGFA|.d2 ef ~g3 e|dB=cA G2||

